X:1
T:Title
%%score [ ( 1 2 ) ( 3 4 ) 5 ( 6 7 ) ]
L:1/8
Q:1/4=120
M:6/4
K:G
V:1 treble nm="Soprano"
V:2 treble 
V:3 treble nm="Alto"
V:4 treble 
V:5 treble-8 nm="Tenor"
V:6 bass nm="Bass"
V:7 bass 
V:1
!p!"^Andante con espressione" D2 | G4 G2 D4 c2 | B4 A2 G4 G2 | F4 G2 A4 D2 | F4 E2 D4 D2 | %5
w: 1.Ich|fahr da- hin, wenn|es muß sein, ich|scheid mich von der|Lieb- sten mein, zu-|
w: 2.Das|sag ich ihr und|nie- mand mehr: Mein'm|Her- zen g'schah noch|nie so weh. Sie|
w: 3.Ich|bitt dich, lieb- ste|Frau- e mein, wann|ich dich mein und|an- ders kein, wann|
w: 4.Nun|halt dein Treu als|stet als ich! So|wie du willt, so|findst du mich. Halt|
w: |||||
 G4 A2!<(! B4 A2!<)! |!<(! c4!<)! B2 A4"^cresc." G2 | B4 c2 d4 e2 | d2 B2!>(! G2 A6!>)! | %9
w: letzt laß ich ihrs|Her- * mein, die-|weil ich leb; so|soll _ es sein.|
w: lie- bet mich je|* je mehr; durch|Mei- den muß ich|lei- * den Pein.|
w: ich dir gib mein|Lieb _ lein, ge-|denk, daß ich dein|ei- * gen bin.|
w: dich in Hut, das|bitt ich dich! Ge-|segn dich Gott! Ich|fahr _ da- hin!|
w: ||||
!pp! G6 F4 G2 | c6 A6 |!<(! B6!<)!!>(! A6!>)! | G6 z2 z2 |] %13
w: ||||
w: ||||
w: ||||
w: ||||
w: Ich fahr da-|hin, ich|fahr da-|hin!|
V:2
 x2 | x12 | x12 | x12 | x12 | x12 | c2 c2 B2 x6 | x12 | x12 | x12 | x12 | x12 | x10 |] %13
w: ||||||* * ze|||||||
w: ||||||län- ger *|||||||
w: ||||||* * al-|||||||
V:3
!p! A,2 | B,4 D2 A,4 C2 | (D2 G2) F2 G4 D2 | D4 D2 D4 D2 | (D2 B,2) ^C2 A,4 =C2 | %5
w: 1.Ich|fahr da- hin, wenn|es * muß sein, ich|scheid mich von der|Lieb- * sten mein, zu-|
w: 2.Das|sag ich ihr und|nie- * mand mehr: Mein'm|Her- zen g'schah noch|nie * so weh. Sie|
w: 3.Ich|bitt dich, lieb- ste|Frau- * e mein, wann|ich dich mein und|an- * ders kein, wann|
w: 4.Nun|halt dein Treu als|stet * als ich! So|wie du willt, so|findst * du mich. Halt|
w: |||||
 (B,2 D2) F2!<(! G4 F2!<)! |!<(! G4!<)! G2 G4"^cresc." G2 | G4 G2 G4 G2 | G4!>(! G2 F6!>)! | %9
w: letzt * laß ich ihrs|Her- * mein, die-|weil ich leb; so|soll es sein.|
w: lie- * bet mich je|län- * mehr; durch|Mei- den muß ich|lei- den Pein.|
w: ich * dir gib mein|Lieb _ lein, ge-|denk, daß ich dein|ei- gen bin.|
w: dich * in Hut, das|bitt _ dich! Ge-|segn dich Gott! Ich|fahr da- hin!|
w: ||||
!pp! E6 D4 E2 | E6 F6 |!<(! (G4 E2)!<)!!>(! F6!>)! | G6 z2 z2 |] %13
w: ||||
w: ||||
w: ||||
w: ||||
w: Ich fahr da-|hin, ich|fahr _ da-|hin!|
V:4
 x2 | x12 | x12 | x12 | x12 | x12 | G2 G2 G2 x6 | x12 | x12 | x12 | x12 | x6 (F2 D2 C2) | B,6 x4 |] %13
w: ||||||* * ze|||||||
w: ||||||* ger je|||||||
w: ||||||* * al-|||||||
w: ||||||* * ich|||||||
V:5
!p! F2 | G4 G2 F4 G2 | (G2 B2) d2 d4 B2 | (d2 A2) B2 (d2 A2) B2 | (A2 D2) G2 F4 F2 | %5
w: 1.Ich|fahr da- hin, wenn|es * muß sein, ich|scheid * mich von * der|Lieb- * sten mein, zu-|
w: 2.Das|sag ich ihr und|nie- * mand mehr: Mein'm|Her- * zen g'schah * noch|nie * so weh. Sie|
w: 3.Ich|bitt dich, lieb- ste|Frau- * e mein, wann|ich * dich mein * und|an- * ders kein, wann|
w: 4.Nun|halt dein Treu als|stet * als ich! So|wie * du willt, * so|findst * du mich. Halt|
w: |||||
 (G2 B2) A2!<(! (G2 B2) d2!<)! |!<(! G2!<)! c2 d2 e4"^cresc." d2 | (g2 f2) e2 (d2 B2) G2 | %8
w: letzt * laß ich * ihrs|Her- * ze mein, die-|weil * ich leb; * so|
w: lie- * bet mich * je|län- ger je mehr; durch|Mei- * den muß * ich|
w: ich * dir gib * mein|Lieb _ al- lein, ge-|denk, * daß ich * dein|
w: dich * in Hut, * das|bitt _ ich dich! Ge-|segn * dich Gott! * Ich|
w: |||
 (G2 B2)!>(! B2 d6!>)! |!pp! B6 d4 B2 | e6 d6 |!<(! (d2 B4)!<)!!>(! d6!>)! | d6 z2 z2 |] %13
w: soll _ es sein.|||||
w: lei- * den Pein.|||||
w: ei- * gen bin.|||||
w: fahr _ da- hin!|||||
w: |Ich fahr da-|hin, ich|fahr _ da-|hin!|
V:6
!p! D,2 | G,,4 B,,2 D,4 E,2 | D,4 C,2 B,,4 G,,2 | D,4 B,,2 F,,4 G,,2 | A,,4 A,,2 D,4 D,2 | %5
w: 1.Ich|fahr da- hin, wenn|es muß sein, ich|scheid mich von der|Lieb- sten mein, zu-|
w: 2.Das|sag ich ihr und|nie- mand mehr: Mein'm|Her- zen g'schah noch|nie so weh. Sie|
w: 3.Ich|bitt dich, lieb- ste|Frau- e mein, wann|ich dich mein und|an- ders kein, wann|
w: 4.Nun|halt dein Treu als|stet als ich! So|wie du willt, so|findst du mich. Halt|
w: |||||
 G,,4 D,2!<(! G,4 D,2!<)! |!<(! E,4!<)! D,2 C,4"^cresc." B,,2 | G,,4 A,,2 B,,4 C,2 | %8
w: letzt laß ich ihrs|Her- * mein, die-|weil ich leb; so|
w: lie- bet mich je|län- * mehr; durch|Mei- den muß ich|
w: ich dir gib mein|Lieb _ lein, ge-|denk, daß ich dein|
w: dich in Hut, das|bitt _ dich! Ge-|segn dich Gott! Ich|
w: |||
 (B,,2 G,,2)!>(! E,2 D,6!>)! |!pp! E,6 B,,4 E,2 | A,,6 D,6 |!<(! G,6!<)!!>(! D,6!>)! | %12
w: soll _ es sein.||||
w: lei- * den Pein.||||
w: ei- * gen bin.||||
w: fahr _ da- hin!||||
w: |Ich fahr da-|hin, ich|fahr da-|
 G,,6 z2 z2 |] %13
w: |
w: |
w: |
w: |
w: hin!|
V:7
 x2 | x12 | x12 | x12 | x12 | x12 | E,2 E,2 D,2 x6 | x12 | x12 | x12 | x12 | x12 | x10 |] %13
w: ||||||* * ze|||||||
w: ||||||* ger je|||||||
w: ||||||* * al-|||||||
w: ||||||* * ich|||||||

